X: 18507
T: I Didn't Drink The Rum
R: polka
M: 2/4
K: Gmajor
[M:2/4]|:B>c dd|cA B2|AG FD|GA/G/ FD|
B>c dd|cA B2|[M:3/4] AG FD G2:|
[M:2/4] ga/g/ fd|ga/g/ fd|fg ag|[M:3/4] fe d2 G2|
[M:2/4] B>c dd|cA B2|[M:3/4] AG FD G2|
[M:2/4] ga/g/ fd|ga/g/ fd|fg ag|[M:3/4] fe d2 G2|
[M:2/4] B>c dd|cA B2|AG FD|GA/G/ FD|
[M:2/4] B>c dd|cA B2|[M:3/4] AG FD G2||

